-----BEGIN PGP PUBLIC KEY BLOCK-----

mQINBGqrQZgBEAC2uIV8tv9rJpCqm1YJXNQd2jIHCVHQl8Ke/6ra3AW3hZbUB8Oj
qmzX+mQziJVaCUffpVPFWwUqGM+N2AQ+mDy4L74gLtceI4CfMeCY44c1OpZPD+jw
FjebZ2orKq6BUr9RoQIqruGWiIZyPzCvbeawGoHvJIlOuermj56XIY8WaIJHOjCA
vDGocT9oYkhclarfs02Ab5rK3I5Txw6Yzs7FAFMqXSvGs+5SAy2CpRnesTlycxTV
+ZQFqG7EGDNKlBrK+3Bcxrv6cBgTSm8rz93AGDsnBXvbV1jAtnUciYT7dGiQx4c8
6ZA5w6IZy+tNHfIoQhSPjOySYyXEvRr5oAZBEEKPB+x714V6Zz6u2Owv2eQI6qg+
v1SmUdje+FpEPtamHMFpXx97N9Wlg+yrmme1KweTiU16VtHoH2E7ZrCA+6t/SVgt
2wtrqFW21TIvaTBoWJfcfk/0w8CbxBCc16RluWM17CskRw0OGprOAs1CQtJmt2RU
TOHCoBAfj0aZBzngzwUQJ8g3eC7BWiZoFVudVUGcAhapHiARhOn8D3b7PUbGknZ1
j5CAt3ffInLm0Q9GF+QBxIFNjF+nQmXzqYA8Kz4A9orV3ovyEg0E+8foh9agJaHM
RB+qtlZxX/xxY+tSLRrIMOZLbt9Q8KQlSH7TRNYS0ai+fmpVzHku3ZKC0QARAQAB
tDNOQUhQVSBUZWFtIChQYWNrYWdlIHNpZ25pbmcga2V5KSA8aGhhbmRpa2FAdWZs
LmVkdT6JAlcEEwEKAEEWIQRtYNOw2QNYrEGKiG5KelEUcjd1YwUCaqtBmAIbAwUJ
CWYBgAULCQgHAgIiAgYVCgkICwIEFgIDAQIeBwIXgAAKCRBKelEUcjd1Y/IPEACZ
KgqKxL9eK8II8PkHwVOQMjUkC/PWXw7SP8sz/AemHLSQtnGT4+J9ZPdVvsXKzlYJ
c+CofJtNOd1IIFPCjwWE/CohSIbdehtbN33Spkmc4X4qwRCzAxP+HoDmUItcxSsN
L0vpvj8YUT5VLObAusg6YnUw1vrLhEHBm8zxB98LBXN4tyBCcVok7IYcO2PmWDoC
k/jZQeTbUwO7Zd4KwULdLzs1FCYKX1w4xPP/rkdqXykSHShLkyOedHzRNPcWfQ2p
WNJqHkBxKyB/KfDFUMBonmr9kUeFleazJU1OmN0AkqSHckrh4QZVr38FV19ZYMsc
JY6r/Qv/cC7L3EdqBF3VEQY4lDT4/BuZFg+uHUjvITc5F6sSLm8SlaR2me393Kip
8B8gHuQdi/JQuoLTD+pZOD3sVYCnjlGCxXMoWCqGNzBebw0B6PylRQg1Ew3u8wPe
oFtI1un10ozVQON7/E2qg8FhDMS2yo3aQuO2d/F1471WDFL9slppzV9OLPzTMZvu
TFab/hRYnxW/LksFKOHmAXKaY7CH93Qnvp1p9PPsfddxzcPB7sXPmw4+tk56t06L
hjCtnEGaZkt7gEkHkRh2MfG/yC/hya3Ok4HSqer0UZ+JgEsQjywncTSXLnucXcrj
ZynTfxzwRhWcXCngruU6dJtlcqYcepn6CFwKcIwzIA==
=sCIP
-----END PGP PUBLIC KEY BLOCK-----
